X:44
T:Union Reel, The
R:reel
D:Mary Bergin: Feadoga Stain
Z:id:hn-reel-382
M:C|
K:A
e2 (3cBA eAcA|eAcA Bcdf|1 e2 (3cBA eAcA|(3Bcd cA BAFA:|2 ~e3c dcBA|FABc d3A||
K:D
|:df~f2 dfef|df~f2 afef|df~f2 dfec|1 dcBA FABc:|2 dcBA Bcdf||
K:A
